src/assets/images/sucess/sucess.svg

<svg width="380" height="272" viewBox="0 0 380 272" fill="none" xmlns="http://www.w3.org/2000/svg">
<path d="M192.319 179.921H64.1043C61.757 179.921 59.7351 178.264 59.2716 175.956L39.5462 77.3295C39.2503 75.8797 39.635 74.3806 40.562 73.2365C41.499 72.0924 42.8995 71.4316 44.3789 71.4316H212.045C213.524 71.4316 214.925 72.0924 215.862 73.2365C216.799 74.3806 217.173 75.8797 216.887 77.3295L197.162 175.956C196.689 178.264 194.667 179.921 192.319 179.921ZM68.148 170.059H188.276L206.029 81.2943H50.3952L68.148 170.059Z" fill="white"/>
<path d="M64.1075 179.96C61.8095 179.96 59.7482 178.343 59.2748 175.995L34.8252 53.7571C33.4444 46.8631 27.3394 41.8627 20.3172 41.8627H20.3073L4.93135 41.8824C2.20924 41.8824 0 39.6732 0 36.9511C0 34.229 2.19938 32.0197 4.93135 32.0197L20.2974 32H20.3172C32.034 32 42.2025 40.334 44.5005 51.824L68.9402 174.062C69.4728 176.735 67.737 179.329 65.0741 179.862C64.7486 179.931 64.4231 179.96 64.1075 179.96Z" fill="white"/>
<path d="M212.048 199.66H44.3819C36.2255 199.66 29.5879 193.023 29.5879 184.866C29.5879 176.71 36.2255 170.072 44.3819 170.072H64.1073C66.8294 170.072 69.0387 172.282 69.0387 175.004C69.0387 177.726 66.8294 179.935 64.1073 179.935H44.3819C41.6598 179.935 39.4506 182.144 39.4506 184.866C39.4506 187.588 41.6598 189.798 44.3819 189.798H212.048C214.77 189.798 216.979 192.007 216.979 194.729C216.979 197.451 214.77 199.66 212.048 199.66Z" fill="white"/>
<path d="M78.9031 249.002C68.0246 249.002 59.1777 240.155 59.1777 229.276C59.1777 218.398 68.0246 209.551 78.9031 209.551C89.7817 209.551 98.6285 218.398 98.6285 229.276C98.6285 240.155 89.7817 249.002 78.9031 249.002ZM78.9031 219.413C73.4688 219.413 69.0404 223.842 69.0404 229.276C69.0404 234.711 73.4688 239.139 78.9031 239.139C84.3375 239.139 88.7658 234.711 88.7658 229.276C88.7658 223.842 84.3375 219.413 78.9031 219.413Z" fill="white"/>
<path d="M167.664 249.002C156.786 249.002 147.939 240.155 147.939 229.276C147.939 218.398 156.786 209.551 167.664 209.551C178.543 209.551 187.39 218.398 187.39 229.276C187.39 240.155 178.543 249.002 167.664 249.002ZM167.664 219.413C162.23 219.413 157.802 223.842 157.802 229.276C157.802 234.711 162.23 239.139 167.664 239.139C173.099 239.139 177.527 234.711 177.527 229.276C177.527 223.842 173.099 219.413 167.664 219.413Z" fill="white"/>
<circle cx="244" cy="136" r="134.5" stroke="black" stroke-width="3"/>
<path d="M208 140.5L233 165.5L294.5 104" stroke="black" stroke-width="3"/>
</svg>

<svg width="380" height="272" fill="none" xmlns="http://www.w3.org/2000/svg"><path d="M192.319 179.921H64.104a4.93 4.93 0 0 1-4.832-3.965L39.546 77.33a4.94 4.94 0 0 1 1.016-4.093 4.93 4.93 0 0 1 3.817-1.805h167.666c1.479 0 2.88.66 3.817 1.805a4.944 4.944 0 0 1 1.025 4.093l-19.725 98.626a4.949 4.949 0 0 1-4.843 3.965zm-124.171-9.862h120.128l17.753-88.765H50.395l17.753 88.765z" fill="#fff"/><path d="M64.108 179.96a4.939 4.939 0 0 1-4.833-3.965L34.825 53.757c-1.38-6.894-7.486-11.894-14.508-11.894h-.01l-15.376.02A4.933 4.933 0 0 1 0 36.95c0-2.722 2.2-4.931 4.931-4.931L20.297 32h.02c11.717 0 21.886 8.334 24.184 19.824l24.44 122.238a4.932 4.932 0 0 1-4.834 5.898z" fill="#fff"/><path d="M212.048 199.66H44.382c-8.157 0-14.794-6.637-14.794-14.794 0-8.156 6.637-14.794 14.794-14.794h19.725a4.934 4.934 0 0 1 4.932 4.932 4.933 4.933 0 0 1-4.932 4.931H44.382a4.933 4.933 0 0 0-4.931 4.931 4.934 4.934 0 0 0 4.93 4.932h167.667a4.933 4.933 0 0 1 4.931 4.931 4.933 4.933 0 0 1-4.931 4.931zM78.903 249.002c-10.878 0-19.725-8.847-19.725-19.726 0-10.878 8.847-19.725 19.725-19.725 10.879 0 19.725 8.847 19.725 19.725 0 10.879-8.846 19.726-19.725 19.726zm0-29.589c-5.434 0-9.863 4.429-9.863 9.863 0 5.435 4.429 9.863 9.863 9.863 5.434 0 9.863-4.428 9.863-9.863 0-5.434-4.428-9.863-9.863-9.863zM167.664 249.002c-10.878 0-19.725-8.847-19.725-19.726 0-10.878 8.847-19.725 19.725-19.725 10.879 0 19.726 8.847 19.726 19.725 0 10.879-8.847 19.726-19.726 19.726zm0-29.589c-5.434 0-9.862 4.429-9.862 9.863 0 5.435 4.428 9.863 9.862 9.863 5.435 0 9.863-4.428 9.863-9.863 0-5.434-4.428-9.863-9.863-9.863z" fill="#fff"/><circle cx="244" cy="136" r="134.5" stroke="#000" stroke-width="3"/><path d="m208 140.5 25 25 61.5-61.5" stroke="#000" stroke-width="3"/></svg>
